X: 13283
T: Fjallnas Hambo, The
R: mazurka
M: 3/4
K: Dmajor
|:D2 D>F E<C|D2 F>A (3dcd|e2 e>d (3cBc|d2 f>d A<F|
D2 D>F E<C|D2 F>A (3dcd|e2 e>d (3cBc|d2 D4:|
|:A2 F>A d>c|B2 B>A G2|e2 e>d (3cBc|d2 f>d A<F|
(3ABA (3FGA d>c|B2 B>A G2|e2 e>d (3cBc|d2 D4:|
|:f2 f>e d<c|B2 B>A G2|e2 e>d c<B|A>B G>A F<E|
D2 D>F E<C|D2 F>A (3dcd|e2 e>d (3cBc|d2 D4:|

